common/src/main/resources/icons/expui/toolwindow/coverage@20x20.svg

<svg xmlns="http://www.w3.org/2000/svg" width="20" height="20" viewBox="0 0 24 24"><path fill="#009688" d="M14 2a8 8 0 0 0-8 8 8 8 0 0 0 8 8 8 8 0 0 0 8-8 8 8 0 0 0-8-8M4.93 5.82A8.01 8.01 0 0 0 2 12a8 8 0 0 0 8 8c.64 0 1.27-.08 1.88-.23-1.76-.39-3.38-1.27-4.71-2.48A6 6 0 0 1 4 12c0-.3.03-.59.07-.89C4.03 10.74 4 10.37 4 10c0-1.44.32-2.87.93-4.18m13.16.26L19.5 7.5 13 14l-3.79-3.79 1.42-1.42L13 11.17"/></svg>

<!--
  - The MIT License (MIT)
  -
  - Copyright (c) 2015-2022 Elior "Mallowigi" Boukhobza
  -
  - Permission is hereby granted, free of charge, to any person obtaining a copy
  - of this software and associated documentation files (the "Software"), to deal
  - in the Software without restriction, including without limitation the rights
  - to use, copy, modify, merge, publish, distribute, sublicense, and/or sell
  - copies of the Software, and to permit persons to whom the Software is
  - furnished to do so, subject to the following conditions:
  -
  - The above copyright notice and this permission notice shall be included in all
  - copies or substantial portions of the Software.
  -
  - THE SOFTWARE IS PROVIDED "AS IS", WITHOUT WARRANTY OF ANY KIND, EXPRESS OR
  - IMPLIED, INCLUDING BUT NOT LIMITED TO THE WARRANTIES OF MERCHANTABILITY,
  - FITNESS FOR A PARTICULAR PURPOSE AND NONINFRINGEMENT. IN NO EVENT SHALL THE
  - AUTHORS OR COPYRIGHT HOLDERS BE LIABLE FOR ANY CLAIM, DAMAGES OR OTHER
  - LIABILITY, WHETHER IN AN ACTION OF CONTRACT, TORT OR OTHERWISE, ARISING FROM,
  - OUT OF OR IN CONNECTION WITH THE SOFTWARE OR THE USE OR OTHER DEALINGS IN THE
  - SOFTWARE.
  -
  -
  -->


<svg xmlns="http://www.w3.org/2000/svg" version="1.1" width="20px" height="20px" viewBox="0 0 24 24">
  <path fill="#009688"
        d="M14,2A8,8 0 0,0 6,10A8,8 0 0,0 14,18A8,8 0 0,0 22,10A8,8 0 0,0 14,2M4.93,5.82C3.08,7.34 2,9.61 2,12A8,8 0 0,0 10,20C10.64,20 11.27,19.92 11.88,19.77C10.12,19.38 8.5,18.5 7.17,17.29C5.22,16.25 4,14.21 4,12C4,11.7 4.03,11.41 4.07,11.11C4.03,10.74 4,10.37 4,10C4,8.56 4.32,7.13 4.93,5.82M18.09,6.08L19.5,7.5L13,14L9.21,10.21L10.63,8.79L13,11.17" />
</svg>
